Yaru++/actions/16/key-enter.svg

<svg height="16" width="16" xmlns="http://www.w3.org/2000/svg"><path d="m13.17035 1v7.5839654c0 1.7501456-.749024 2.9087416-1.823406 3.4699556-1.074381.56238-2.361766.612552-3.5929749.612552h-.4365407v2.333527c-.8894662-.404867-1.7988283-.858739-2.7210643-1.360447-.9128735-.501708-1.7941473-1.020918-2.6426512-1.556463.8485039-.523876 1.7297777-1.037253 2.6426512-1.540128a50.406985 50.252521 0 0 1 2.7222347-1.3756146v2.3335276h.4330296c1.1855646 0 2.3114416-.09218 3.0499326-.478374.738491-.385031 1.198439-.980081 1.198439-2.4385356v-7.5839654z" fill="#808080" stroke-width="1.168556"/></svg>

<?xml version="1.0" encoding="UTF-8" standalone="no"?>
<svg
   xmlns:dc="http://purl.org/dc/elements/1.1/"
   xmlns:cc="http://creativecommons.org/ns#"
   xmlns:rdf="http://www.w3.org/1999/02/22-rdf-syntax-ns#"
   xmlns:svg="http://www.w3.org/2000/svg"
   xmlns="http://www.w3.org/2000/svg"
   xmlns:sodipodi="http://sodipodi.sourceforge.net/DTD/sodipodi-0.dtd"
   xmlns:inkscape="http://www.inkscape.org/namespaces/inkscape"
   width="16"
   height="16"
   version="1.1"
   id="svg8"
   sodipodi:docname="key-enter.svg"
   inkscape:version="0.92.4 (5da689c313, 2019-01-14)">
  <metadata
     id="metadata14">
    <rdf:RDF>
      <cc:Work
         rdf:about="">
        <dc:format>image/svg+xml</dc:format>
        <dc:type
           rdf:resource="http://purl.org/dc/dcmitype/StillImage" />
        <dc:title />
      </cc:Work>
    </rdf:RDF>
  </metadata>
  <defs
     id="defs12">
    <style
       id="current-color-scheme"
       type="text/css">
      .ColorScheme-Text {
        color:#232629;
      }
      </style>
  </defs>
  <sodipodi:namedview
     pagecolor="#ffffff"
     bordercolor="#666666"
     borderopacity="1"
     objecttolerance="10"
     gridtolerance="10"
     guidetolerance="10"
     inkscape:pageopacity="0"
     inkscape:pageshadow="2"
     inkscape:window-width="1920"
     inkscape:window-height="1016"
     id="namedview10"
     showgrid="true"
     inkscape:snap-object-midpoints="true"
     inkscape:zoom="52.4375"
     inkscape:cx="3.794994"
     inkscape:cy="8"
     inkscape:window-x="0"
     inkscape:window-y="27"
     inkscape:window-maximized="1"
     inkscape:current-layer="g6">
    <inkscape:grid
       type="xygrid"
       id="grid870" />
  </sodipodi:namedview>
  <g
     fill="#808080"
     font-weight="400"
     id="g6">
    <path
       d="m 13.17035,1 v 7.5839654 c 0,1.7501456 -0.749024,2.9087416 -1.823406,3.4699556 -1.074381,0.56238 -2.361766,0.612552 -3.5929749,0.612552 H 7.3174284 V 15 C 6.4279622,14.595133 5.5186001,14.141261 4.5963641,13.639553 3.6834906,13.137845 2.8022168,12.618635 1.9537129,12.08309 2.8022168,11.559214 3.6834906,11.045837 4.5963641,10.542962 A 50.406985,50.252521 0 0 1 7.3185988,9.1673474 v 2.3335276 h 0.4330296 c 1.1855646,0 2.3114416,-0.09218 3.0499326,-0.478374 C 11.540052,10.63747 12,10.04242 12,8.5839654 V 1 Z"
       overflow="visible"
       id="path4"
       inkscape:connector-curvature="0"
       style="color:#000000;font-family:sans-serif;overflow:visible;stroke-width:1.16855574" />
  </g>
</svg>
